client/public/static/logos/clickey.svg

<svg width="430" height="425" viewBox="0 0 430 425" fill="none" xmlns="http://www.w3.org/2000/svg">
<path d="M37.0361 398.512C26.4085 398.512 17.5852 394.98 10.5511 387.885C3.51704 380.805 0 372.043 0 361.599C0 351.154 3.51704 342.408 10.5511 335.312C17.5852 328.232 26.4085 324.685 37.0361 324.685C43.749 324.685 49.9268 326.321 55.5541 329.578C61.1967 332.835 65.5395 337.178 68.6283 342.576L50.3091 353.203C47.786 347.989 43.275 345.374 36.7455 345.374C32.1734 345.374 28.4116 346.888 25.4298 349.916C22.448 352.944 20.9494 356.843 20.9494 361.583C20.9494 366.324 22.4327 370.223 25.4298 373.251C28.4116 376.278 32.1887 377.792 36.7455 377.792C43.3668 377.792 47.8777 375.193 50.3091 369.963L68.6283 380.453C65.5548 385.958 61.212 390.331 55.6306 393.588C50.0339 396.846 43.8408 398.482 37.0361 398.482V398.512Z" fill="#333333"/>
<path d="M77.0078 396.555V294.515H97.9725V396.555H77.0078Z" fill="#333333"/>
<path d="M132.714 316.81C130.237 319.287 127.285 320.51 123.829 320.51C120.374 320.51 117.422 319.272 114.96 316.81C112.483 314.348 111.26 311.381 111.26 307.925C111.26 304.47 112.498 301.518 114.96 299.041C117.422 296.579 120.389 295.34 123.829 295.34C127.27 295.34 130.237 296.579 132.714 299.041C135.176 301.518 136.414 304.47 136.414 307.925C136.414 311.381 135.176 314.333 132.714 316.81ZM113.355 396.555V326.658H134.319V396.555H113.355Z" fill="#333333"/>
<path d="M183.237 398.512C172.61 398.512 163.786 394.98 156.752 387.885C149.718 380.805 146.201 372.043 146.201 361.599C146.201 351.154 149.718 342.408 156.752 335.312C163.786 328.232 172.61 324.685 183.237 324.685C189.95 324.685 196.128 326.321 201.755 329.578C207.398 332.835 211.741 337.178 214.83 342.576L196.51 353.203C193.987 347.989 189.476 345.374 182.947 345.374C178.375 345.374 174.613 346.888 171.631 349.916C168.649 352.944 167.151 356.843 167.151 361.583C167.151 366.324 168.634 370.223 171.631 373.251C174.613 376.278 178.39 377.792 182.947 377.792C189.568 377.792 194.079 375.193 196.51 369.963L214.83 380.453C211.756 385.958 207.413 390.331 201.832 393.588C196.235 396.846 190.042 398.482 183.237 398.482V398.512Z" fill="#333333"/>
<path d="M284.59 396.555H269.497L237.629 363.464V396.555H225.473V298.705H237.629V357.439L267.83 326.673H283.489L250.077 360.498L284.605 396.555H284.59Z" fill="#333333"/>
<path d="M297.996 367.211C299.204 373.45 302.079 378.297 306.59 381.753C311.101 385.209 316.682 386.921 323.288 386.921C332.509 386.921 339.222 383.527 343.412 376.722L353.749 382.594C346.944 393.13 336.699 398.39 322.997 398.39C311.911 398.39 302.889 394.919 295.947 387.976C289.004 381.034 285.533 372.257 285.533 361.629C285.533 351.002 288.928 342.331 295.733 335.343C302.537 328.355 311.345 324.853 322.156 324.853C332.402 324.853 340.766 328.462 347.25 335.679C353.718 342.897 356.96 351.598 356.96 361.751C356.96 363.525 356.822 365.345 356.547 367.211H297.98H297.996ZM322.172 336.322C315.642 336.322 310.244 338.157 305.963 341.842C301.681 345.527 299.02 350.436 297.996 356.583H344.681C343.656 349.962 341.041 344.931 336.852 341.49C332.662 338.05 327.768 336.322 322.172 336.322Z" fill="#333333"/>
<path d="M416.966 326.673H429.964L401.445 400.898C398.463 408.819 394.289 414.859 388.937 419.003C383.585 423.147 377.407 424.997 370.419 424.523V413.207C378.951 413.865 385.221 409.094 389.212 398.925L390.542 396.295L360.066 326.688H373.064L396.368 380.27L416.951 326.688L416.966 326.673Z" fill="#333333"/>
<path d="M225.454 250.903C172.285 250.903 129.025 207.644 129.025 154.475V96.4283C129.025 43.2597 172.285 0 225.454 0C278.622 0 321.882 43.2597 321.882 96.4283V154.475C321.882 207.644 278.622 250.903 225.454 250.903ZM225.454 25.7815C186.491 25.7815 154.792 57.4808 154.792 96.4436V154.49C154.792 193.453 186.491 225.152 225.454 225.152C264.417 225.152 296.116 193.453 296.116 154.49V96.4436C296.116 57.4808 264.417 25.7815 225.454 25.7815Z" fill="#333333"/>
<path d="M240.596 96.4895C241.467 99.7466 239.005 102.958 235.641 102.958H225.442H215.15C211.771 102.958 209.309 99.7466 210.196 96.4895L214.294 81.3203C210.701 78.1856 208.438 73.5981 208.438 68.4755C208.438 63.781 210.334 59.5299 213.407 56.4563C216.481 53.3827 220.732 51.4866 225.426 51.4866C230.121 51.4866 234.372 53.3827 237.446 56.4563C240.519 59.5299 242.415 63.781 242.415 68.4755C242.415 73.17 240.519 77.421 237.446 80.4946C237.124 80.8157 236.819 81.1063 236.482 81.3815L240.58 96.4895H240.596Z" fill="#333333"/>
</svg>

<svg xmlns="http://www.w3.org/2000/svg" width="430" height="425" fill="none" viewBox="0 0 430 425"><path fill="#333" d="M37.036 398.512c-10.628 0-19.45-3.532-26.485-10.627Q0 377.265 0 361.599c0-10.445 3.517-19.191 10.551-26.287 7.034-7.08 15.858-10.627 26.485-10.627 6.713 0 12.89 1.636 18.518 4.893 5.643 3.257 9.986 7.6 13.074 12.998L50.31 353.203c-2.523-5.214-7.034-7.829-13.563-7.829-4.573 0-8.334 1.514-11.316 4.542s-4.48 6.927-4.48 11.667 1.483 8.64 4.48 11.668c2.982 3.027 6.759 4.541 11.316 4.541 6.62 0 11.132-2.599 13.563-7.829l18.32 10.49c-3.074 5.505-7.417 9.878-12.998 13.135-5.597 3.258-11.79 4.894-18.595 4.894zM77.008 396.555v-102.04h20.965v102.04zM132.714 316.81c-2.477 2.477-5.429 3.7-8.885 3.7s-6.407-1.238-8.869-3.7c-2.477-2.462-3.7-5.429-3.7-8.885s1.238-6.407 3.7-8.884c2.462-2.462 5.429-3.701 8.869-3.701 3.441 0 6.408 1.239 8.885 3.701 2.462 2.477 3.7 5.429 3.7 8.884s-1.238 6.408-3.7 8.885m-19.359 79.745v-69.897h20.964v69.897zM183.237 398.512c-10.627 0-19.451-3.532-26.485-10.627q-10.551-10.62-10.551-26.286c0-10.445 3.517-19.191 10.551-26.287 7.034-7.08 15.858-10.627 26.485-10.627 6.713 0 12.891 1.636 18.518 4.893 5.643 3.257 9.986 7.6 13.075 12.998l-18.32 10.627c-2.523-5.214-7.034-7.829-13.563-7.829-4.572 0-8.334 1.514-11.316 4.542s-4.48 6.927-4.48 11.667 1.483 8.64 4.48 11.668c2.982 3.027 6.759 4.541 11.316 4.541 6.621 0 11.132-2.599 13.563-7.829l18.32 10.49c-3.074 5.505-7.417 9.878-12.998 13.135-5.597 3.258-11.79 4.894-18.595 4.894zM284.59 396.555h-15.093l-31.868-33.091v33.091h-12.156v-97.85h12.156v58.734l30.201-30.766h15.659l-33.412 33.825 34.528 36.057zM297.996 367.211c1.208 6.239 4.083 11.086 8.594 14.542s10.092 5.168 16.698 5.168c9.221 0 15.934-3.394 20.124-10.199l10.337 5.872c-6.805 10.536-17.05 15.796-30.752 15.796-11.086 0-20.108-3.471-27.05-10.414s-10.414-15.719-10.414-26.347c0-10.627 3.395-19.298 10.2-26.286s15.612-10.49 26.423-10.49q15.368 0 25.094 10.826c6.468 7.218 9.71 15.919 9.71 26.072q0 2.661-.413 5.46H297.98zm24.176-30.889c-6.53 0-11.928 1.835-16.209 5.52-4.282 3.685-6.943 8.594-7.967 14.741h46.685c-1.025-6.621-3.64-11.652-7.829-15.093-4.19-3.44-9.084-5.168-14.68-5.168M416.966 326.673h12.998l-28.519 74.225c-2.982 7.921-7.156 13.961-12.508 18.105s-11.53 5.994-18.518 5.52v-11.316c8.532.658 14.802-4.113 18.793-14.282l1.33-2.63-30.476-69.607h12.998l23.304 53.582 20.583-53.582zM225.454 250.903c-53.169 0-96.429-43.259-96.429-96.428V96.428C129.025 43.26 172.285 0 225.454 0c53.168 0 96.428 43.26 96.428 96.428v58.047c0 53.169-43.26 96.428-96.428 96.428m0-225.121c-38.963 0-70.662 31.699-70.662 70.662v58.046c0 38.963 31.699 70.662 70.662 70.662s70.662-31.699 70.662-70.662V96.444c0-38.963-31.699-70.663-70.662-70.663"/><path fill="#333" d="M240.596 96.49c.871 3.257-1.591 6.468-4.955 6.468H215.15c-3.379 0-5.841-3.211-4.954-6.468l4.098-15.17c-3.593-3.134-5.856-7.722-5.856-12.844 0-4.695 1.896-8.946 4.969-12.02a16.94 16.94 0 0 1 12.019-4.97c4.695 0 8.946 1.897 12.02 4.97a16.94 16.94 0 0 1 4.969 12.02c0 4.694-1.896 8.945-4.969 12.019-.322.32-.627.611-.964.886l4.098 15.109z"/></svg>
